X: 26841
T: Mimi And The New Generation
R: polka
M: 2/4
K: Dmajor
|:fd cd|Bd Af|fg fg|ef gf/g/|
ad cd|Bd Af|g2 fe|1 d2 df/g/:|2 d2 dg/f/||
|:eA Ag/f/|eA A2|ge fd|cd eg/f/|
eA Ag/f/|eA A2|ge af|1 d2 dg/f/:|2 d2 d>g||

